billpay/cable.svg

<svg width="48" height="48" viewBox="0 0 48 48" fill="none" xmlns="http://www.w3.org/2000/svg">
<mask id="mask0_3027_21313" style="mask-type:alpha" maskUnits="userSpaceOnUse" x="0" y="0" width="48" height="48">
<rect width="48" height="48" fill="#D9D9D9"/>
</mask>
<g mask="url(#mask0_3027_21313)">
<mask id="mask1_3027_21313" style="mask-type:alpha" maskUnits="userSpaceOnUse" x="0" y="0" width="48" height="48">
<rect width="48" height="48" fill="#D9D9D9"/>
</mask>
<g mask="url(#mask1_3027_21313)">
<path d="M10 32H14C14 30.9 13.6083 29.9583 12.825 29.175C12.0417 28.3917 11.1 28 10 28V32ZM17.1 32H20C20 29.2333 19.025 26.875 17.075 24.925C15.125 22.975 12.7667 22 10 22V24.9C11.9667 24.9 13.6417 25.5917 15.025 26.975C16.4083 28.3583 17.1 30.0333 17.1 32ZM23.1 32H26C26 29.8 25.5833 27.725 24.75 25.775C23.9167 23.825 22.775 22.125 21.325 20.675C19.875 19.225 18.175 18.0833 16.225 17.25C14.275 16.4167 12.2 16 10 16V18.9C13.6333 18.9 16.725 20.175 19.275 22.725C21.825 25.275 23.1 28.3667 23.1 32ZM16 42V38H8C6.9 38 5.95833 37.6083 5.175 36.825C4.39167 36.0417 4 35.1 4 34V10C4 8.9 4.39167 7.95833 5.175 7.175C5.95833 6.39167 6.9 6 8 6H40C41.1 6 42.0417 6.39167 42.825 7.175C43.6083 7.95833 44 8.9 44 10V34C44 35.1 43.6083 36.0417 42.825 36.825C42.0417 37.6083 41.1 38 40 38H32V42H16Z" fill="white"/>
</g>
</g>
</svg>

<svg width="48" height="48" viewBox="0 0 48 48" fill="none" xmlns="http://www.w3.org/2000/svg"><path d="M10 32h4q0-1.65-1.175-2.825T10 28zm7.1 0H20q0-4.15-2.925-7.075T10 22v2.9q2.95 0 5.025 2.075T17.1 32m6 0H26q0-3.3-1.25-6.225a16.1 16.1 0 0 0-3.425-5.1 16.1 16.1 0 0 0-5.1-3.425Q13.3 16 10 16v2.9q5.45 0 9.275 3.825T23.1 32M16 42v-4H8q-1.65 0-2.825-1.175T4 34V10q0-1.65 1.175-2.825T8 6h32q1.65 0 2.825 1.175T44 10v24q0 1.65-1.175 2.825T40 38h-8v4z" fill="#fff"/></svg>
